Adwaita++/actions/16/mail-unread-multiple.svg

<svg height="16" viewBox="0 0 16 16" width="16" xmlns="http://www.w3.org/2000/svg">
  <path d="m2 2c-1.108 0-2 .892-2 2v8c0 1.108.892 2 2 2h6v-5l-6-3v-2l6 3 6-3v2l-2 1h3c.363969 0 .703481.1077387 1 .2832031v-3.2832031c0-1.108-.892-2-2-2zm8 6c-.5540002 0-1 .4460005-1 1v5c0 .554.4459998 1 1 1h5c.554 0 1-.446 1-1v-5c0-.5539995-.446-1-1-1zm0 1h1v1h1v1h1v-1h1v-1h1v5h-1v-3h-1v1h-1v-1h-1v3h-1z" fill="#474747"/>
  <path d="m10 8.0000005c-.5540002 0-1.0000002.446-1.0000002.9999995v5c0 .554.446 1 1.0000002 1h5c.554 0 1-.446 1-1v-5c0-.5539995-.446-.9999995-1-.9999995zm0 .9999995h1v1h1v1h1v-1h1v-1h1v5h-1v-3h-1v1h-1v-1h-1v3h-1z" fill="none"/>
</svg>

<svg xmlns="http://www.w3.org/2000/svg" width="16" height="16" version="1.1" viewBox="0 0 16 16">
 <defs>
  <style id="current-color-scheme" type="text/css">
   .ColorScheme-Text { color:#474747; } .ColorScheme-Highlight { color:#4285f4; }
  </style>
 </defs>
 <path style="fill:currentColor" class="ColorScheme-Text" d="M 2 2 C 0.892 2 0 2.892 0 4 L 0 12 C 0 13.108 0.892 14 2 14 L 8 14 L 8 9 L 2 6 L 2 4 L 8 7 L 14 4 L 14 6 L 12 7 L 15 7 C 15.363969 7 15.703481 7.1077387 16 7.2832031 L 16 4 C 16 2.892 15.108 2 14 2 L 2 2 z M 10 8 C 9.4459998 8 9 8.4460005 9 9 L 9 14 C 9 14.554 9.4459998 15 10 15 L 15 15 C 15.554 15 16 14.554 16 14 L 16 9 C 16 8.4460005 15.554 8 15 8 L 10 8 z M 10 9 L 11 9 L 11 10 L 12 10 L 12 11 L 13 11 L 13 10 L 14 10 L 14 9 L 15 9 L 15 14 L 14 14 L 14 11 L 13 11 L 13 12 L 12 12 L 12 11 L 11 11 L 11 14 L 10 14 L 10 9 z"/>
 <path style="fill:none" d="m 10,8.0000005 c -0.5540002,0 -1.0000002,0.446 -1.0000002,0.9999995 l 0,5 c 0,0.554 0.446,1 1.0000002,1 l 5,0 c 0.554,0 1,-0.446 1,-1 L 16,9 C 16,8.4460005 15.554,8.0000005 15,8.0000005 l -5,0 z M 10,9 l 1,0 0,1 1,0 0,1 1,0 0,-1 1,0 0,-1 1,0 0,5 -1,0 0,-3 -1,0 0,1 -1,0 0,-1 -1,0 0,3 -1,0 0,-5 z"/>
</svg>
